app/assets/icons/polaris/Columns3Major.svg

<svg viewBox="0 0 20 20" xmlns="http://www.w3.org/2000/svg"><path fill-rule="evenodd" d="M2 0a2 2 0 0 0-2 2v16a2 2 0 0 0 2 2h16a2 2 0 0 0 2-2v-16a2 2 0 0 0-2-2h-16Zm16 2h-4v16h4v-16Zm-10 0h4v16h-4v-16Zm-2 0h-4v16h4v-16Z"/></svg>

<svg viewBox="0 0 20 20" xmlns="http://www.w3.org/2000/svg"><path fill-rule="evenodd" d="M2 0a2 2 0 0 0-2 2v16a2 2 0 0 0 2 2h16a2 2 0 0 0 2-2V2a2 2 0 0 0-2-2H2zm16 2h-4v16h4V2zM8 2h4v16H8V2zM6 2H2v16h4V2z"/></svg>
